X: 1
T: Elizabeth's Big Coat
T: Effie's Wite Coat; Lassies of Glendale; Poirt Mabou
O: Cape Breton, NS
S: Kenny Fraser
S: https://tunearch.org/wiki/Elizabeth%27s_Big_Coat
S: https://www.cranfordpub.com/tunes/CapeBreton/Elizbeth'sBigCoat.htm
S: David Geenberg & Kate Dunlay "The DunGreen Collection"
Z: 2020 John Chambers <jc:trillian.mit.edu>
M: C|
L: 1/8
K: Amix
   a | eAc2 dBBd | cA A/A/A {e}g2fb | edc2 dcBd | egdB {cB}A2A :| 
|: d |~c2ce dBBd | ~c2eA ~g2fa | ~c2ce dBBd | egdB [1 {cB}A2A :|2 {cB}A2 (3(efg) ||
|:     aece dBBe |  aeag ~f2ef |  aece dcBd | egdB [1 {cB}A2Ag |2 {cB}A2A ||
|: d | cAce dBBd |  cAAc  BgdB |  cAce dBBg | c<ABG {G}A2 A :|
